X:1
T:Major Logan's Favorite [1]
T:Major Logan's Favorite [1]
T:Nathaniel Gow (1763-1831)
C:Nathaniel Gow (1763-1831)
L:1/8
M:4/4
K:Bb
V:1 treble 
V:1
 D | B,2 B>F .TB.F dB | B,2{Bc} d>B cGG>B | B,2{B} d>B c>G BF | G>B(FB) DB,B, :| f | %6
 (df)Tg>f (Bf)g>Ta | b>Gg>B{Bc} dcTc>f | (df)Tg>f TG>aTb>c' |{c'} d'>a{a} b>g{g} fdd>f | %10
 (d<f)Tg>f .B(fga) | b>Gg>B{Bc} dc cf/e/ | d>BG>B (FB)(.D.B) | (Ac)f>e{e} dBB |: f | %15
 (dBFB DBFB) (d/B/f/B/ g/B/f/B/) | (d/B/)(F/B/) (D/B/)(F/B/){Bc} dc cf/e/ | %17
 (d/B/F/B/ D/B/F/B/) (D/B/)(f/B/) TgTa | b/>f/g3/4B/ f/>B/(.A/.e/) dBB :| f | %20
 (d/f/)(TB/F/) (B/f/)Tg/f/ .b/f/(Tg/f/) (d/f/)(B/f/) | (d/f/)Tg/a/ (b/G/)(g/B/){Bc} dcTc(f/e/) | %22
 (d/f/)Tg/f/ .B/(f/g/a/) (b/a/)(Tg/f/) .g/(a/b/c'/) | d'/>b/c'/>a/{c'} b3/4a/b/g/ fdd>f | %24
 (d/f/)(Tg/f/) (B/f/)Tg/f/ b/f/(Tg/f/) (d/f/)(B/f/) | (d/f/)Tg/a/ (b/B/)(g/B/){Bc} dc Tc(f/e/) | %26
 (d/f/).e/.d/ (c/B/).A/.G/ (F/G/)(F/E/) .D/(f/b/f/) | (g/e/)d/c/ (B/A/)f/c/{c} dBB || %28

